dist/svgs/org-chevron-down.svg

<svg xmlns="http://www.w3.org/2000/svg" viewBox="0 0 512 512"><path d="M503 136q9 10 9 23t-9 23L279 406q-10 9-23 9t-23-9L9 182q-9-9-9-23 0-12 9-23 10-9 23-9t23 9l201 201 201-201q10-9 23-9t23 9z"/></svg>

<?xml version="1.0" encoding="UTF-8" standalone="no"?><svg   xmlns:svg="http://www.w3.org/2000/svg"   xmlns="http://www.w3.org/2000/svg"   version="1.1"   width="512"   height="512"   viewBox="0 0 512 512">  <path     d="M503 136Q512 146 512 159T503 182L279 406Q269 415 256 415T233 406L9 182Q0 173 0 159Q0 147 9 136Q19 127 32 127T55 136L256 337L457 136Q467 127 480 127T503 136z"     id="org-chevron-down" /></svg>
